common/src/main/resources/icons/nodes/circlet.svg

<!--
  - The MIT License (MIT)
  -
  - Copyright (c) 2015-2024 Elior "Mallowigi" Boukhobza
  -
  - Permission is hereby granted, free of charge, to any person obtaining a copy
  - of this software and associated documentation files (the "Software"), to deal
  - in the Software without restriction, including without limitation the rights
  - to use, copy, modify, merge, publish, distribute, sublicense, and/or sell
  - copies of the Software, and to permit persons to whom the Software is
  - furnished to do so, subject to the following conditions:
  -
  - The above copyright notice and this permission notice shall be included in all
  - copies or substantial portions of the Software.
  -
  - THE SOFTWARE IS PROVIDED "AS IS", WITHOUT WARRANTY OF ANY KIND, EXPRESS OR
  - IMPLIED, INCLUDING BUT NOT LIMITED TO THE WARRANTIES OF MERCHANTABILITY,
  - FITNESS FOR A PARTICULAR PURPOSE AND NONINFRINGEMENT. IN NO EVENT SHALL THE
  - AUTHORS OR COPYRIGHT HOLDERS BE LIABLE FOR ANY CLAIM, DAMAGES OR OTHER
  - LIABILITY, WHETHER IN AN ACTION OF CONTRACT, TORT OR OTHERWISE, ARISING FROM,
  - OUT OF OR IN CONNECTION WITH THE SOFTWARE OR THE USE OR OTHER DEALINGS IN THE
  - SOFTWARE.
  -->

<svg data-big="true" width="16px" height="16px" viewBox="0 0 13 13" fill="none" xmlns="http://www.w3.org/2000/svg">
  <path
    d="M2.83289 11.8193C1.81911 10.2871 1.20404 8.52953 1.0427 6.70381C0.881362 4.8781 1.1788 3.04118 1.90839 1.35741L1.92759 1.36543C4.19328 2.28891 6.14874 3.83042 7.56729 5.8113C7.00786 8.83874 3.11924 11.6184 2.83289 11.8193ZM3.02317 1.0001L3.01795 1.00033L3.01228 1C2.95541 1 2.89791 1.00657 2.84092 1.0074C4.95025 1.99538 6.76761 3.50546 8.11797 5.39221L11.9113 5.39071C10.8722 4.02778 9.52892 2.9221 7.98687 2.16035C6.44481 1.39859 4.74586 1.00147 3.02317 1.0001V1.0001ZM12 6.07679H8.22498C7.65342 8.74269 4.91792 11.0946 3.74252 12C4.95584 11.8222 6.13139 11.4476 7.22204 10.8911C9.29275 9.8345 10.9674 8.14714 12 6.07679V6.07679Z"
    fill="#4DD0E1"></path>
</svg>

<svg xmlns="http://www.w3.org/2000/svg" width="16" height="16" fill="none" data-big="true" viewBox="0 0 13 13"><path fill="#4DD0E1" d="M2.833 11.82a11.007 11.007 0 0 1-.924-10.462l.019.007a12.94 12.94 0 0 1 5.64 4.446c-.56 3.028-4.449 5.807-4.735 6.008M3.023 1h-.011c-.057 0-.114.007-.171.007a13.56 13.56 0 0 1 5.277 4.385l3.793-.001a11.1 11.1 0 0 0-3.924-3.23A11.2 11.2 0 0 0 3.023 1M12 6.077H8.225C7.653 8.743 4.918 11.095 3.743 12a11.2 11.2 0 0 0 3.479-1.109A10.84 10.84 0 0 0 12 6.077"/></svg>
